X:1
T:Itch and Scratch
M:C|
L:1/8
Q:80
C:Composed by T. O'Conner
S:Hornpipe
K:HP
|: e | \
{gAGAG}A{gcd}c/2e/2{g}d/2B/2{g}G/2{d}B/2 | \
{g}c/2{d}A/2{e}A/2{d}B/2{gAGAG}A{gcd}c/2e/2 | \
{ag}a{ef}e/2c/2{g}d/2f/2{e}f/2d/2 |
{g}c/2e/2{A}e/2c/2{gBd}B/2e/2{gde}d/2B/2{gAGAG}A{gcd}c/2e/2{g}d/2B/2{g}G
/2{d}B/2 | \
{g}c/2{d}A/2{e}A/2{d}B/2{gAGAG}A{gcd}c/2e/2 | \
{ag}a{ef}e/2c/2{gBd}B/2f/2{g}e/2f/2 |
{ag}a{AGAG}A{g}A :: \
{gcd}c/2e/2 | \
{ag}a{ef}e/2c/2{gBd}B/2f/2{g}e/2f/2 |
{ag}a{AGAG}A{g}A{gcd}c/2e/2 | \
{ag}a{ef}e/2c/2{gBd}B/2g/2{a}g/2f/2 | \
{gef}eB{gBG}B{gcd}c/2e/2|1 {ag}a{ef}e/2c/2{gBd}B/2f/2{g}e/2f/2 |
{ag}a{AGAG}A{g}A{gcd}c/2e/2 | \
{a}g/2e/2{g}d/2e/2{gBd}B/2d/2{g}e/2g/2 | \
{ag}a{AGAG}A{g}A :|
